X:130
T: Fiddler (The)
C: Eamon Flynn
Z: B.Black
R: reel
M: 4/4
L: 1/8
K: A
E2 | A2 (3cBA FAEF | ABce fece | fa (3aga faec |\
AecA BAFG |
A2 (3cBA FAEF | ABce fafe | fa (3aga faec |\
BABc A2 :|
e2 | acec aeca | gfec dBGB | ac (3ccc fcef |\
gefg egfe |
acec aeca | gfec dBGB | ac (3ccc fcec |\
dBGB A2 :|
